X:1
T:Title
%%score { ( 1 3 ) | ( 2 4 ) }
L:1/8
Q:1/4=100
M:4/4
K:F
V:1 treble nm="Grand Piano"
V:3 treble 
V:2 bass 
V:4 bass 
V:1
 A2 c2 [Ec]2 [EG]2 | [FA][DG]FE F4 | [EG]2 [DF][EG] [FA]>[GB] [Ac]2 | %3
w: W.~H.~Doane * * *|||
 [Bd][Ac][GB][FA] [FA]2 [EG]2 | [FA]2 [Fc]2 [Ec]2 [CEG]2 | [CFA][B,DG][A,CF][CEG] [CFA]4 | %6
w: |||
 [B,FB][B,FB][CFA][CEG] [CFc]2 [DGB][DFA] | G4 z4 | [EG]2 [_E^F][=EG] [Ge]2 [CGc]2 | %9
w: |||
 [CAc]2 [CG=B][CFA] [CEG]2 [G,CE]2 | [CEG]2 [CFA][DG=B] [CGc]2 [Ge]2 | %11
w: ||
[M:9/8] d2 c =B [Ec]2 [G_B]3 |[M:4/4] [FA]2 [Fc]2 [Ec]2 [CEG]2 | [CFA][B,DG][A,CF][CEG] [CFA]4 | %14
w: |||
 [B,FB][B,FB][CFA][CEG] [CFc]2 [DGB][DFA][Q:1/4=97][Q:1/4=94][Q:1/4=91][Q:1/4=88][Q:1/4=84][Q:1/4=81][Q:1/4=78] | %15
w: |
 G4 z4 |] %16
w: |
V:2
 [F,CF]2 [F,A,F]2 [C,G,]2 [C,C]2 | [F,C][B,,B,][C,A,C][C,G,C] [F,A,C]4 | %2
 [C,C]2 [C,C][C,C] [F,C]2 [F,F]2 | [F,F]2 [E,C][F,C] [C,C]2 [C,C]2 | [F,C]2 [F,A,]2 [C,G,]2 C,2 | %5
 F,B,,C,C, F,4 | D,D,C,B,, A,,2 B,,=B,, | z2 B,2 [F,A,]4 | [C,C]2 [C,C][C,C] [C,C]2 E,2 | %9
 F,2 F,F, C,2 C,2 | C,2 F,F, E,2 [C,C]2 |[M:9/8] [F,A,F]2 [G,E] [G,D] [C,G,]2 [E,C]3 | %12
[M:4/4] [F,C]2 [F,A,]2 [C,G,]2 C,2 | F,B,,C,C, F,4 | D,D,C,B,, A,,2 B,,=B,, | z2 B,2 [F,A,]4 |] %16
V:3
 x8 | x8 | x8 | x8 | x8 | x8 | x8 | [CF]2 E2 F4 | x8 | x8 | x8 |[M:9/8] x9 |[M:4/4] x8 | x8 | x8 | %15
 [CF]2 E2 F4 |] %16
V:4
 x8 | x8 | x8 | x8 | x8 | x8 | x8 | C,4 z4 | x8 | x8 | x8 |[M:9/8] x9 |[M:4/4] x8 | x8 | x8 | %15
 C,4 z4 |] %16

